X: 11
T: Within A Mile Of Dublin
Z: leprecawn
S: https://thesession.org/tunes/125#setting52542
R: reel
M: 4/4
L: 1/8
K: Dmix
FG||:AD D2 FEFG|AD D2 c2 Bd|AD D2 FEFG|ABcA G2 FG:||
Addc AGFG|Adde fdec|Addc AGFG|ABcA G2 FG|
Addc AGFG|Adde f3g|af (3gfe fdec|dBAF G2||

